X:1
T:Polonäs i F efter Conrad Sandsten
S:efter Conrad Sandsten
B:SMUS - katalog M170 bild 27 (längst ned t.h.)
B:Conrad Sandstens notbok
O:Kumla, Närke
Z:Nils L
M:3/4
L:1/16
R:Polonäs
K:F
a2ga f2f2 f2ga | b2ab g2g2 g4 | a2f2 b2g2 a2f2 | f2ef gfed c4 | 
a2ga f2f2 f2ga | b2ab g2g2 g4 | a2f2 b2g2 a2f2 | efge f4 F4 ::
A2c2 A2c2 dcBA | G2B2 G2B2 cBAG | F8 F2F2 | GFED "^C?"D2C2 C4 |

